app/component-library/components/Icons/Icon/assets/messages.svg

<svg width="24" height="24" viewBox="0 0 24 24" fill="none" xmlns="http://www.w3.org/2000/svg">
<path d="M15.8708 12.4V16.47C15.8708 16.83 15.8308 17.17 15.7408 17.48C15.3708 18.95 14.1508 19.87 12.4708 19.87H9.75076L6.73076 21.88C6.28076 22.19 5.68076 21.86 5.68076 21.32V19.87C4.66076 19.87 3.81076 19.53 3.22076 18.94C2.62076 18.34 2.28076 17.49 2.28076 16.47V12.4C2.28076 10.5 3.46076 9.19 5.28076 9.02C5.41076 9.01 5.54076 9 5.68076 9H12.4708C14.5108 9 15.8708 10.36 15.8708 12.4Z" fill="currentColor"/>
<path d="M18.0308 15.6C19.3008 15.6 20.3708 15.18 21.1108 14.43C21.8608 13.69 22.2808 12.62 22.2808 11.35V6.25C22.2808 3.9 20.3808 2 18.0308 2H9.53076C7.18076 2 5.28076 3.9 5.28076 6.25V7C5.28076 7.28 5.50076 7.5 5.78076 7.5H12.4708C15.1808 7.5 17.3708 9.69 17.3708 12.4V15.1C17.3708 15.38 17.5908 15.6 17.8708 15.6H18.0308Z" fill="currentColor"/>
</svg>

<svg xmlns="http://www.w3.org/2000/svg" width="24" height="24" viewBox="0 0 24 24" fill="none"><path d="M15.87 12.4v4.07c0 .36-.04.7-.13 1.01-.37 1.47-1.59 2.39-3.27 2.39H9.75l-3.02 2.01a.671.671 0 0 1-1.05-.56v-1.45c-1.02 0-1.87-.34-2.46-.93-.6-.6-.94-1.45-.94-2.47V12.4c0-1.9 1.18-3.21 3-3.38.13-.01.26-.02.4-.02h6.79c2.04 0 3.4 1.36 3.4 3.4z" fill="currentColor"/><path d="M18.03 15.6c1.27 0 2.34-.42 3.08-1.17.75-.74 1.17-1.81 1.17-3.08v-5.1c0-2.35-1.9-4.25-4.25-4.25h-8.5C7.18 2 5.28 3.9 5.28 6.25V7c0 .28.22.5.5.5h6.69c2.71 0 4.9 2.19 4.9 4.9v2.7c0 .28.22.5.5.5h.16z" fill="currentColor"/></svg>
